X:1
T:Seeds of Love
M:4/4
L:1/8
K:G
 D2| G3 F G2 A2| G6 GB| d2 d2 c2B-A| G4- D2 DD| B2 BBd-B cA|G-A BG D2 DD|\
 C2 CC D2 D2| d6 cA| B2 cA G2 F2| G4 z2||

